icons/eq.svg

<!--
  - The MIT License (MIT)
  -
  - Copyright (c) 2015-2024 Elior "Mallowigi" Boukhobza
  -
  - Permission is hereby granted, free of charge, to any person obtaining a copy
  - of this software and associated documentation files (the "Software"), to deal
  - in the Software without restriction, including without limitation the rights
  - to use, copy, modify, merge, publish, distribute, sublicense, and/or sell
  - copies of the Software, and to permit persons to whom the Software is
  - furnished to do so, subject to the following conditions:
  -
  - The above copyright notice and this permission notice shall be included in all
  - copies or substantial portions of the Software.
  -
  - THE SOFTWARE IS PROVIDED "AS IS", WITHOUT WARRANTY OF ANY KIND, EXPRESS OR
  - IMPLIED, INCLUDING BUT NOT LIMITED TO THE WARRANTIES OF MERCHANTABILITY,
  - FITNESS FOR A PARTICULAR PURPOSE AND NONINFRINGEMENT. IN NO EVENT SHALL THE
  - AUTHORS OR COPYRIGHT HOLDERS BE LIABLE FOR ANY CLAIM, DAMAGES OR OTHER
  - LIABILITY, WHETHER IN AN ACTION OF CONTRACT, TORT OR OTHERWISE, ARISING FROM,
  - OUT OF OR IN CONNECTION WITH THE SOFTWARE OR THE USE OR OTHER DEALINGS IN THE
  - SOFTWARE.
  -
  -->

<svg version="1.1" xmlns="http://www.w3.org/2000/svg" viewBox="0 0 512 512" width="16px" height="16px">
  <path fill="#f8af70" data-iconColor="EQ"
        d="M41.9608917,188.5983734c11.1418457-104.3042221,156.881485-96.2215347,160.7410278,0H41.9608917z M245.5094757,229.6727753c4.6950836-82.5130768-25.1683197-130.0591278-79.1311493-151.4989624C84.541832,48.7532578,0,107.9325333,0,193.4888611c0,43.5800629,32.8022308,120.7257385,122.7547379,120.7257385h122.4165726v-42.2709045H114.3005524c-27.7440186-3.0107117-49.2403641-17.6221466-61.5464516-42.2709198H245.5094757z M479.2247009,108.8060913c-63.7449036-68.7826691-177.8209534-42.5278473-204.8441467,47.1452332c-23.7797852,78.9102173,35.4064026,155.3057861,111.806488,158.276062V272.814209c-45.7182007-2.5031128-83.7677307-44.6000519-75.4876404-94.4538116c10.2198792-61.5328445,83.421814-89.1420517,131.4472351-49.5772095c31.817749,26.2124023,36.9090271,68.9985046,19.789917,101.2832489v61.3613281C518.1287231,250.668808,531.3555908,165.0569458,479.2247009,108.8060913z M443.4777527,200.8465118h-42.3591614V442.182251h42.3591614V200.8465118z"/>
</svg>

<svg xmlns="http://www.w3.org/2000/svg" viewBox="0 0 512 512"><path fill="#f8af70" d="M41.96 188.598c11.143-104.304 156.882-96.221 160.742 0zm203.55 41.075c4.695-82.513-25.169-130.06-79.132-151.5C84.542 48.754 0 107.934 0 193.49c0 43.58 32.802 120.726 122.755 120.726H245.17v-42.271H114.3c-27.744-3.011-49.24-17.622-61.547-42.271zm233.715-120.867C415.48 40.023 301.404 66.278 274.38 155.951c-23.78 78.91 35.406 155.306 111.806 158.276v-41.413c-45.718-2.503-83.768-44.6-75.488-94.454 10.22-61.532 83.422-89.142 131.448-49.577 31.817 26.213 36.909 68.999 19.79 101.283v61.362c56.192-40.76 69.419-126.371 17.288-182.622m-35.747 92.04h-42.36v241.336h42.36z" data-iconColor="EQ"/></svg>
